X:257
T:Steirer (55.)
C:traditionell
A:Salzkammergut
S:MIDI erhalten von Christian Amon. Nach einer kopie im besitz von Johann Stoeckl eines manuscriptes. Stoeckl(zitiert von Amon): "diese sammlung wurde 1935 im hause der familie Hohenlohe-Schillingfuerst gefunden. Sie wurde von einem der beiden brueder Steinegger 1866 verfasst. Die originale sind im Ausseer Kammerhofmuseum".
M:3/4
L:1/8
K:G
V:1
Bd |\
Ac ea dc' | bg d2 Bd | Af d2 cd | Bg d2 Bd |\
Ac ea dc' | bg d2 Bd | Af d2 cf | g4 |*
V:2
dg |\
ce gc' fe' | d'b g2 dg | da f2 ef | db g2 dg |\
ce gc' fe' | d'b g2 dg | da f2 da | b4 |*
